<?xml version="1.0" encoding="UTF-8"?>
<map version="1.10" tiledversion="1.12.1"
orientation="orthogonal" renderorder="right-down"
width="800" height="600"
tilewidth="1" tileheight="1"
infinite="0"
nextlayerid="3"
nextobjectid="66">

 <tileset firstgid="1" source="chess.tsx"/>

 <objectgroup id="2" name="design">

  <!-- Row 8 -->
  <object id="1" name="possible_position" gid="2" x="175" y="110" width="36" height="48"/>
  <object id="2" name="possible_position" gid="2" x="235" y="110" width="36" height="48"/>
  <object id="3" name="possible_position" gid="2" x="295" y="110" width="36" height="48"/>
  <object id="4" name="possible_position" gid="2" x="355" y="110" width="36" height="48"/>
  <object id="5" name="possible_position" gid="2" x="415" y="110" width="36" height="48"/>
  <object id="6" name="possible_position" gid="2" x="475" y="110" width="36" height="48"/>
  <object id="7" name="possible_position" gid="2" x="535" y="110" width="36" height="48"/>
  <object id="8" name="possible_position" gid="2" x="595" y="110" width="36" height="48"/>

  <!-- Row 7 -->
  <object id="9" name="possible_position" gid="2" x="175" y="170" width="36" height="48"/>
  <object id="10" name="possible_position" gid="2" x="235" y="170" width="36" height="48"/>
  <object id="11" name="possible_position" gid="2" x="295" y="170" width="36" height="48"/>
  <object id="12" name="possible_position" gid="2" x="355" y="170" width="36" height="48"/>
  <object id="13" name="possible_position" gid="2" x="415" y="170" width="36" height="48"/>
  <object id="14" name="possible_position" gid="2" x="475" y="170" width="36" height="48"/>
  <object id="15" name="possible_position" gid="2" x="535" y="170" width="36" height="48"/>
  <object id="16" name="possible_position" gid="2" x="595" y="170" width="36" height="48"/>

  <!-- Row 6 -->
  <object id="17" name="possible_position" gid="2" x="175" y="230" width="36" height="48"/>
  <object id="18" name="possible_position" gid="2" x="235" y="230" width="36" height="48"/>
  <object id="19" name="possible_position" gid="2" x="295" y="230" width="36" height="48"/>
  <object id="20" name="possible_position" gid="2" x="355" y="230" width="36" height="48"/>
  <object id="21" name="possible_position" gid="2" x="415" y="230" width="36" height="48"/>
  <object id="22" name="possible_position" gid="2" x="475" y="230" width="36" height="48"/>
  <object id="23" name="possible_position" gid="2" x="535" y="230" width="36" height="48"/>
  <object id="24" name="possible_position" gid="2" x="595" y="230" width="36" height="48"/>

  <!-- Row 5 -->
  <object id="25" name="possible_position" gid="2" x="175" y="290" width="36" height="48"/>
  <object id="26" name="possible_position" gid="2" x="235" y="290" width="36" height="48"/>
  <object id="27" name="possible_position" gid="2" x="295" y="290" width="36" height="48"/>
  <object id="28" name="possible_position" gid="2" x="355" y="290" width="36" height="48"/>
  <object id="29" name="possible_position" gid="2" x="415" y="290" width="36" height="48"/>
  <object id="30" name="possible_position" gid="2" x="475" y="290" width="36" height="48"/>
  <object id="31" name="possible_position" gid="2" x="535" y="290" width="36" height="48"/>
  <object id="32" name="possible_position" gid="2" x="595" y="290" width="36" height="48"/>

  <!-- Row 4 -->
  <object id="33" name="possible_position" gid="2" x="175" y="350" width="36" height="48"/>
  <object id="34" name="possible_position" gid="2" x="235" y="350" width="36" height="48"/>
  <object id="35" name="possible_position" gid="2" x="295" y="350" width="36" height="48"/>
  <object id="36" name="possible_position" gid="2" x="355" y="350" width="36" height="48"/>
  <object id="37" name="possible_position" gid="2" x="415" y="350" width="36" height="48"/>
  <object id="38" name="possible_position" gid="2" x="475" y="350" width="36" height="48"/>
  <object id="39" name="possible_position" gid="2" x="535" y="350" width="36" height="48"/>
  <object id="40" name="possible_position" gid="2" x="595" y="350" width="36" height="48"/>

  <!-- Row 3 -->
  <object id="41" name="possible_position" gid="2" x="175" y="410" width="36" height="48"/>
  <object id="42" name="possible_position" gid="2" x="235" y="410" width="36" height="48"/>
  <object id="43" name="possible_position" gid="2" x="295" y="410" width="36" height="48"/>
  <object id="44" name="possible_position" gid="2" x="355" y="410" width="36" height="48"/>
  <object id="45" name="possible_position" gid="2" x="415" y="410" width="36" height="48"/>
  <object id="46" name="possible_position" gid="2" x="475" y="410" width="36" height="48"/>
  <object id="47" name="possible_position" gid="2" x="535" y="410" width="36" height="48"/>
  <object id="48" name="possible_position" gid="2" x="595" y="410" width="36" height="48"/>

  <!-- Row 2 -->
  <object id="49" name="possible_position" gid="2" x="175" y="470" width="36" height="48"/>
  <object id="50" name="possible_position" gid="2" x="235" y="470" width="36" height="48"/>
  <object id="51" name="possible_position" gid="2" x="295" y="470" width="36" height="48"/>
  <object id="52" name="possible_position" gid="2" x="355" y="470" width="36" height="48"/>
  <object id="53" name="possible_position" gid="2" x="415" y="470" width="36" height="48"/>
  <object id="54" name="possible_position" gid="2" x="475" y="470" width="36" height="48"/>
  <object id="55" name="possible_position" gid="2" x="535" y="470" width="36" height="48"/>
  <object id="56" name="possible_position" gid="2" x="595" y="470" width="36" height="48"/>

  <object id="57" name="possible_position" gid="2" x="175" y="530" width="36" height="48"/>
  <object id="58" name="possible_position" gid="2" x="235" y="530" width="36" height="48"/>
  <object id="59" name="possible_position" gid="2" x="295" y="530" width="36" height="48"/>
  <object id="60" name="possible_position" gid="2" x="355" y="530" width="36" height="48"/>
  <object id="61" name="possible_position" gid="2" x="415" y="530" width="36" height="48"/>
  <object id="62" name="possible_position" gid="2" x="475" y="530" width="36" height="48"/>
  <object id="63" name="possible_position" gid="2" x="535" y="530" width="36" height="48"/>
  <object id="64" name="possible_position" gid="2" x="595" y="530" width="36" height="48"/>

  <object id="65" name="board" gid="1" x="140" y="560" width="528" height="528"/>

 </objectgroup>
</map>